alternatives/kde-colorscheme/22/places/user-home.svg

<?xml version="1.0" encoding="UTF-8" standalone="no"?>
<!-- Created with Inkscape (http://www.inkscape.org/) -->

<svg
   width="22"
   height="22"
   viewBox="0 0 22 22"
   version="1.1"
   id="svg5"
   inkscape:version="1.2.1 (1:1.2.1+202210291243+9c6d41e410)"
   sodipodi:docname="user-home.svg"
   xmlns:inkscape="http://www.inkscape.org/namespaces/inkscape"
   xmlns:sodipodi="http://sodipodi.sourceforge.net/DTD/sodipodi-0.dtd"
   xmlns="http://www.w3.org/2000/svg"
   xmlns:svg="http://www.w3.org/2000/svg">
  <sodipodi:namedview
     id="namedview7"
     pagecolor="#ffffff"
     bordercolor="#000000"
     borderopacity="0.25"
     inkscape:showpageshadow="2"
     inkscape:pageopacity="0.0"
     inkscape:pagecheckerboard="0"
     inkscape:deskcolor="#d1d1d1"
     inkscape:document-units="px"
     showgrid="false"
     inkscape:zoom="37.5"
     inkscape:cx="11"
     inkscape:cy="11"
     inkscape:window-width="1920"
     inkscape:window-height="1018"
     inkscape:window-x="0"
     inkscape:window-y="28"
     inkscape:window-maximized="1"
     inkscape:current-layer="svg5" />
  <defs
     id="defs2">
     <style
       id="current-color-scheme"
       type="text/css">
         .ColorScheme-Highlight { color:#3daee9; }
     </style>
  </defs>
  <path
     d="M 1,2 C 0.4460005,2 0,2.4460005 0,3 v 18 c 0,0.554 0.4460005,1 1,1 h 20 c 0.554,0 1,-0.446 1,-1 V 6 C 22,5.4460005 21.554,5 21,5 H 11 L 9,2.5 C 8.6603625,2.169952 8.5539995,2 8,2 Z"
     style="opacity:0.3;fill:#000000;stroke-width:0.5"
     id="path1016"
     sodipodi:nodetypes="ssssssssccss" />
  <path
     id="rect184"
     style="fill:currentColor;fill-opacity:1;stroke-width:0.5"
     class="ColorScheme-Highlight"
     d="M 1,1 C 0.4460006,1 0,1.4460004 0,2 v 18 c 0,0.554 0.4460006,1 1,1 h 20 c 0.554,0 1,-0.446 1,-1 V 5 C 22,4.4460005 21.554,4 21,4 H 11 L 9,1.5 C 8.655655,1.1853323 8.554,1 8,1 Z"
     sodipodi:nodetypes="sccsssssccss" />
  <path
     id="path1511"
     style="opacity:0.4;fill:#000000;fill-opacity:1;stroke-width:0.5"
     d="M 1 1 C 0.44600175 1 0 1.4460016 0 2 L 0 8 C 0 7.4477166 0.44771695 7 1 7 L 8 7 C 8.5539984 7 8.6665983 6.8069877 9 6.5 L 11 4 L 9 1.5 C 8.6556551 1.1853329 8.5539983 1 8 1 L 1 1 z " />
  <path
     id="path3081"
     style="opacity:0.2;fill:#ffffff;stroke-width:0.5"
     d="M 11,4 9,6.5 C 8.666598,6.806988 8.553999,7 8,7 H 1 C 0.4477164,7 0,7.447716 0,8 V 9 C 0,8.447716 0.4477164,8 1,8 H 8 C 8.553999,8 8.666597,7.806988 9,7.5 L 11,5 h 10 c 0.553998,0 1,0.446002 1,1 V 5 C 22,4.446002 21.553998,4 21,4 Z"
     sodipodi:nodetypes="ccssscssccscssc" />
  <path
     id="path463"
     style="color:#000000;font-style:normal;font-variant:normal;font-weight:normal;font-stretch:normal;font-size:medium;line-height:normal;font-family:sans-serif;font-variant-ligatures:normal;font-variant-position:normal;font-variant-caps:normal;font-variant-numeric:normal;font-variant-alternates:normal;font-variant-east-asian:normal;font-feature-settings:normal;font-variation-settings:normal;text-indent:0;text-align:start;text-decoration:none;text-decoration-line:none;text-decoration-style:solid;text-decoration-color:#000000;letter-spacing:normal;word-spacing:normal;text-transform:none;writing-mode:lr-tb;direction:ltr;text-orientation:mixed;dominant-baseline:auto;baseline-shift:baseline;text-anchor:start;white-space:normal;shape-padding:0;shape-margin:0;inline-size:0;clip-rule:nonzero;display:inline;overflow:visible;visibility:visible;opacity:0.6;isolation:auto;mix-blend-mode:normal;color-interpolation:sRGB;color-interpolation-filters:linearRGB;solid-color:#000000;solid-opacity:1;fill:#ffffff;fill-opacity:1;fill-rule:nonzero;stroke:none;stroke-width:0.999999;stroke-linecap:butt;stroke-linejoin:miter;stroke-miterlimit:4;stroke-dasharray:none;stroke-dashoffset:0;stroke-opacity:1;color-rendering:auto;image-rendering:auto;shape-rendering:auto;text-rendering:auto;enable-background:new;stop-color:#000000"
     d="M 11,9.292969 5.6464844,14.646484 6.3535156,15.353516 7,14.707031 V 18 a 1,1 0 0 0 1,1 h 6 a 1,1 0 0 0 1,-1 v -3.292969 l 0.646484,0.646485 0.707032,-0.707032 L 15,13.292969 V 10 h -1 v 2.292969 z m 0,1.414062 3,3 V 18 H 8 v -4.292969 z" />
</svg>

<?xml version="1.0" encoding="UTF-8" standalone="no"?>
<!-- Created with Inkscape (http://www.inkscape.org/) -->

<svg
   width="22"
   height="22"
   viewBox="0 0 22 22"
   version="1.1"
   id="svg5"
   inkscape:version="1.2.2 (1:1.2.2+202305151914+b0a8486541)"
   sodipodi:docname="user-home.svg"
   xmlns:inkscape="http://www.inkscape.org/namespaces/inkscape"
   xmlns:sodipodi="http://sodipodi.sourceforge.net/DTD/sodipodi-0.dtd"
   xmlns="http://www.w3.org/2000/svg"
   xmlns:svg="http://www.w3.org/2000/svg">
  <sodipodi:namedview
     id="namedview7"
     pagecolor="#ffffff"
     bordercolor="#000000"
     borderopacity="0.25"
     inkscape:showpageshadow="2"
     inkscape:pageopacity="0.0"
     inkscape:pagecheckerboard="0"
     inkscape:deskcolor="#d1d1d1"
     inkscape:document-units="px"
     showgrid="false"
     inkscape:zoom="36.636364"
     inkscape:cx="10.986352"
     inkscape:cy="11"
     inkscape:window-width="1920"
     inkscape:window-height="1008"
     inkscape:window-x="0"
     inkscape:window-y="0"
     inkscape:window-maximized="1"
     inkscape:current-layer="svg5" />
  <defs
     id="defs2">
    <style
       id="current-color-scheme"
       type="text/css">
         .ColorScheme-Text { color:#232629; }
         .ColorScheme-Highlight { color:#3daee9; }
     </style>
  </defs>
  <path
     d="M 1,2 C 0.4460005,2 0,2.4460005 0,3 v 18 c 0,0.554 0.4460005,1 1,1 h 20 c 0.554,0 1,-0.446 1,-1 V 6 C 22,5.4460005 21.554,5 21,5 H 11 L 9,2.5 C 8.6603625,2.169952 8.5539995,2 8,2 Z"
     style="opacity:0.3;fill:#000000;stroke-width:0.5"
     id="path1016"
     sodipodi:nodetypes="ssssssssccss" />
  <path
     id="rect184"
     style="fill:currentColor;fill-opacity:1;stroke-width:0.5"
     class="ColorScheme-Highlight"
     d="M 1,1 C 0.4460006,1 0,1.4460004 0,2 v 18 c 0,0.554 0.4460006,1 1,1 h 20 c 0.554,0 1,-0.446 1,-1 V 5 C 22,4.4460005 21.554,4 21,4 H 11 L 9,1.5 C 8.655655,1.1853323 8.554,1 8,1 Z"
     sodipodi:nodetypes="sccsssssccss" />
  <path
     id="path1511"
     style="opacity:0.4;fill:#000000;fill-opacity:1;stroke-width:0.5"
     d="M 1 1 C 0.44600175 1 0 1.4460016 0 2 L 0 8 C 0 7.4477166 0.44771695 7 1 7 L 8 7 C 8.5539984 7 8.6665983 6.8069877 9 6.5 L 11 4 L 9 1.5 C 8.6556551 1.1853329 8.5539983 1 8 1 L 1 1 z " />
  <path
     id="path3081"
     style="opacity:0.2;fill:#ffffff;stroke-width:0.5"
     d="M 11,4 9,6.5 C 8.666598,6.806988 8.553999,7 8,7 H 1 C 0.4477164,7 0,7.447716 0,8 V 9 C 0,8.447716 0.4477164,8 1,8 H 8 C 8.553999,8 8.666597,7.806988 9,7.5 L 11,5 h 10 c 0.553998,0 1,0.446002 1,1 V 5 C 22,4.446002 21.553998,4 21,4 Z"
     sodipodi:nodetypes="ccssscssccscssc" />
  <path
     id="path396"
     style="opacity:0.6;fill:currentColor;stroke-width:2;stroke-linecap:round"
     d="M 11 9.2929688 L 5.6464844 14.646484 L 6.3535156 15.353516 L 7 14.707031 L 7 18 A 1 1 0 0 0 8 19 L 14 19 A 1 1 0 0 0 15 18 L 15 14.707031 L 15.646484 15.353516 L 16.353516 14.646484 L 15 13.292969 L 15 10 L 14 10 L 14 12.292969 L 11 9.2929688 z M 11 10.707031 L 14 13.707031 L 14 18 L 8 18 L 8 13.707031 L 11 10.707031 z "
     class="ColorScheme-Text" />
</svg>
